static/img/kroki/f551add013002910a7bd4eefc0ee5461.svg

<?xml version="1.0" encoding="us-ascii" standalone="no"?><svg xmlns="http://www.w3.org/2000/svg" xmlns:xlink="http://www.w3.org/1999/xlink" contentStyleType="text/css" height="213px" preserveAspectRatio="none" style="width:323px;height:213px;" version="1.1" viewBox="0 0 323 213" width="323px" zoomAndPan="magnify"><defs/><g><!--class resource--><g id="elem_resource"><rect codeLine="23" fill="#3D176E" height="39.7891" id="resource" rx="2.5" ry="2.5" style="stroke:#000D19;stroke-width:0.5;" width="113" x="7" y="7"/><ellipse cx="22" cy="26.8945" fill="#ADD1B2" rx="11" ry="11" style="stroke:#181818;stroke-width:1.0;"/><path d="M24.9688,32.5352 Q24.3906,32.832 23.75,32.9727 Q23.1094,33.1289 22.4063,33.1289 Q19.9063,33.1289 18.5781,31.4883 Q17.2656,29.832 17.2656,26.707 Q17.2656,23.582 18.5781,21.9258 Q19.9063,20.2695 22.4063,20.2695 Q23.1094,20.2695 23.75,20.4258 Q24.4063,20.582 24.9688,20.8789 L24.9688,23.5977 Q24.3438,23.0195 23.75,22.7539 Q23.1563,22.4727 22.5313,22.4727 Q21.1875,22.4727 20.5,23.5508 Q19.8125,24.6133 19.8125,26.707 Q19.8125,28.8008 20.5,29.8789 Q21.1875,30.9414 22.5313,30.9414 Q23.1563,30.9414 23.75,30.6758 Q24.3438,30.3945 24.9688,29.8164 L24.9688,32.5352 Z " fill="#000000"/><text fill="#D9B8FF" font-family="Helvetica" font-size="17" lengthAdjust="spacing" textLength="71" x="41" y="32.7798">resource</text></g><!--class scarf_package--><g id="elem_scarf_package"><rect codeLine="26" fill="#3D176E" height="39.7891" id="scarf_package" rx="2.5" ry="2.5" style="stroke:#000D19;stroke-width:0.5;" width="158" x="70.5" y="167.79"/><ellipse cx="85.5" cy="187.6845" fill="#ADD1B2" rx="11" ry="11" style="stroke:#181818;stroke-width:1.0;"/><path d="M88.4688,193.3252 Q87.8906,193.622 87.25,193.7627 Q86.6094,193.9189 85.9063,193.9189 Q83.4063,193.9189 82.0781,192.2783 Q80.7656,190.622 80.7656,187.497 Q80.7656,184.372 82.0781,182.7158 Q83.4063,181.0595 85.9063,181.0595 Q86.6094,181.0595 87.25,181.2158 Q87.9063,181.372 88.4688,181.6689 L88.4688,184.3877 Q87.8438,183.8095 87.25,183.5439 Q86.6563,183.2627 86.0313,183.2627 Q84.6875,183.2627 84,184.3408 Q83.3125,185.4033 83.3125,187.497 Q83.3125,189.5908 84,190.6689 Q84.6875,191.7314 86.0313,191.7314 Q86.6563,191.7314 87.25,191.4658 Q87.8438,191.1845 88.4688,190.6064 L88.4688,193.3252 Z " fill="#000000"/><text fill="#D9B8FF" font-family="Helvetica" font-size="17" lengthAdjust="spacing" textLength="116" x="104.5" y="193.5698">scarf_package</text></g><!--class scarf_resource--><g id="elem_scarf_resource"><rect codeLine="29" fill="#3D176E" height="39.7891" id="scarf_resource" rx="2.5" ry="2.5" style="stroke:#000D19;stroke-width:0.5;" width="161" x="155" y="7"/><ellipse cx="170" cy="26.8945" fill="#ADD1B2" rx="11" ry="11" style="stroke:#181818;stroke-width:1.0;"/><path d="M172.9688,32.5352 Q172.3906,32.832 171.75,32.9727 Q171.1094,33.1289 170.4063,33.1289 Q167.9063,33.1289 166.5781,31.4883 Q165.2656,29.832 165.2656,26.707 Q165.2656,23.582 166.5781,21.9258 Q167.9063,20.2695 170.4063,20.2695 Q171.1094,20.2695 171.75,20.4258 Q172.4063,20.582 172.9688,20.8789 L172.9688,23.5977 Q172.3438,23.0195 171.75,22.7539 Q171.1563,22.4727 170.5313,22.4727 Q169.1875,22.4727 168.5,23.5508 Q167.8125,24.6133 167.8125,26.707 Q167.8125,28.8008 168.5,29.8789 Q169.1875,30.9414 170.5313,30.9414 Q171.1563,30.9414 171.75,30.6758 Q172.3438,30.3945 172.9688,29.8164 L172.9688,32.5352 Z " fill="#000000"/><text fill="#D9B8FF" font-family="Helvetica" font-size="17" lengthAdjust="spacing" textLength="119" x="189" y="32.7798">scarf_resource</text></g><!--reverse link resource to scarf_package--><g id="link_resource_scarf_package"><path codeLine="32" d="M82.4424,62.8776 C98.9724,93.3976 122.54,136.9 139.09,167.46 " fill="none" id="resource-backto-scarf_package" style="stroke:#FFAF37;stroke-width:2.0;"/><polygon fill="none" points="73.87,47.05,77.1666,65.7351,87.7183,60.0201,73.87,47.05" style="stroke:#FFAF37;stroke-width:2.0;"/></g><!--reverse link scarf_resource to scarf_package--><g id="link_scarf_resource_scarf_package"><path codeLine="33" d="M216.5576,62.8776 C200.0276,93.3976 176.46,136.9 159.91,167.46 " fill="none" id="scarf_resource-backto-scarf_package" style="stroke:#FFAF37;stroke-width:2.0;"/><polygon fill="none" points="225.13,47.05,211.2817,60.0201,221.8334,65.7351,225.13,47.05" style="stroke:#FFAF37;stroke-width:2.0;"/></g><!--SRC=[XP1FRuCm3CNlV8f8FIF1geqYxT8XJTkbcjRT9qCSY804EM5Lz-UxhwnTbGRQ7kttU_QpAycHOTlPBMknpP5CO6gfEY1esP98RpBTQ68p8K3C4rzyrCfU1LRG8dl2vWEjBC0dtYfPr0gDOJUEz015NPBk5T-FjmJAx2HKrg6o1enPMaioxoqwONYQBuJmIN_eRCxZv0v7c2QET42YAE9nwYDNLrsy-qYivIUos7tQIbiSnHoj-ACkfXm89-Jeq7_zRCONu5ogajqwlTTz9b989_rr1Lnl1bf0OzmrnYAXjjiEiz5Lc2wuI2RXvtDmK0olOuH6zrGW-mg2dqFF543YlTiPePmGJYt7wlux3CDJR-0Pff1V]--></g></svg>

<svg xmlns="http://www.w3.org/2000/svg" width="323" height="213" viewBox="0 0 323 213"><rect width="113" height="39.789" x="7" y="7" fill="#3D176E" rx="2.5" ry="2.5" style="stroke:#000d19;stroke-width:.5"/><circle cx="22" cy="26.895" r="11" fill="#ADD1B2" style="stroke:#181818;stroke-width:1"/><path d="M24.969 32.535q-.578.297-1.219.438-.64.156-1.344.156-2.5 0-3.828-1.64-1.312-1.657-1.312-4.782t1.312-4.781q1.328-1.656 3.828-1.656.703 0 1.344.156.656.156 1.219.453v2.719q-.625-.578-1.219-.844-.594-.281-1.219-.281-1.343 0-2.031 1.078-.687 1.062-.687 3.156t.687 3.172q.688 1.062 2.031 1.062.625 0 1.219-.265.594-.281 1.219-.86z"/><text x="41" y="32.78" fill="#D9B8FF" font-family="Helvetica" font-size="17" textLength="71">resource</text><rect width="158" height="39.789" x="70.5" y="167.79" fill="#3D176E" rx="2.5" ry="2.5" style="stroke:#000d19;stroke-width:.5"/><circle cx="85.5" cy="187.685" r="11" fill="#ADD1B2" style="stroke:#181818;stroke-width:1"/><path d="M88.469 193.325q-.578.297-1.219.438-.64.156-1.344.156-2.5 0-3.828-1.64-1.312-1.657-1.312-4.782t1.312-4.781q1.328-1.656 3.828-1.656.703 0 1.344.156.656.156 1.219.453v2.719q-.625-.578-1.219-.844-.594-.281-1.219-.281-1.344 0-2.031 1.078-.687 1.062-.687 3.156t.687 3.172q.688 1.062 2.031 1.062.625 0 1.219-.265.594-.281 1.219-.86z"/><text x="104.5" y="193.57" fill="#D9B8FF" font-family="Helvetica" font-size="17" textLength="116">scarf_package</text><rect width="161" height="39.789" x="155" y="7" fill="#3D176E" rx="2.5" ry="2.5" style="stroke:#000d19;stroke-width:.5"/><circle cx="170" cy="26.895" r="11" fill="#ADD1B2" style="stroke:#181818;stroke-width:1"/><path d="M172.969 32.535q-.578.297-1.219.438-.64.156-1.344.156-2.5 0-3.828-1.64-1.312-1.657-1.312-4.782t1.312-4.781q1.328-1.656 3.828-1.656.703 0 1.344.156.656.156 1.219.453v2.719q-.625-.578-1.219-.844-.594-.281-1.219-.281-1.344 0-2.031 1.078-.687 1.062-.687 3.156t.687 3.172q.688 1.062 2.031 1.062.625 0 1.219-.265.594-.281 1.219-.86z"/><text x="189" y="32.78" fill="#D9B8FF" font-family="Helvetica" font-size="17" textLength="119">scarf_resource</text><path fill="none" d="M82.442 62.878c16.53 30.52 40.098 74.022 56.648 104.582M73.87 47.05l3.297 18.685 10.551-5.715zm142.688 15.828c-16.53 30.52-40.098 74.022-56.648 104.582m65.22-120.41-13.848 12.97 10.551 5.715z" style="stroke:#ffaf37;stroke-width:2"/></svg>
